brandFactory_export/2.Regular/Agua gota _2Regular.svg

<?xml version="1.0" encoding="UTF-8"?>
<svg width="24px" height="24px" viewBox="0 0 24 24" version="1.1" xmlns="http://www.w3.org/2000/svg" xmlns:xlink="http://www.w3.org/1999/xlink">
    <title>2.Regular/Agua gota _2Regular</title>
    <g id="Symbols" stroke="none" stroke-width="1" fill="none" fill-rule="evenodd">
        <g id="2.Regular/Agua-gota-_2Regular" fill="#5CB615" fill-rule="nonzero">
            <path d="M12.3865546,22.1210084 L12.3462185,22.1210084 C10.1579832,22.1210084 8.45042017,21.5193277 7.27058824,20.3294118 C6.08739496,19.1327731 5.48235294,17.3882353 5.47560168,15.1428571 C5.46218487,11.1529412 10.1983193,4.33613445 12.3294118,1.85210084 C14.2722689,4.13109244 19.2369748,10.9142857 19.2505064,15.0991597 C19.2672269,19.6134454 16.8268908,22.107563 12.3865546,22.1210084 M12.8605042,0.211764706 C12.5815126,-0.0705882353 12.0907563,-0.0705882353 11.8151261,0.211764706 C10.2218487,1.83193277 3.98655462,9.99663866 4.00332743,15.1462185 C4.01008403,17.7680672 4.78319328,19.9260504 6.23529412,21.394958 C7.68067227,22.8537815 9.79495798,23.6235294 12.3529412,23.6235294 L12.3932773,23.6235294 C17.6302521,23.6067227 20.7495798,20.4201681 20.7361777,15.0957983 C20.7159664,9.56302521 13.8386555,1.20672269 12.8605042,0.211764706" id="Agua-gota-_2Regular"></path>
        </g>
    </g>
</svg>

<svg width="24" height="24" viewBox="0 0 24 24" xmlns="http://www.w3.org/2000/svg"><path d="M12.387 22.121h-.04c-2.189 0-3.897-.602-5.076-1.792-1.184-1.196-1.789-2.94-1.795-5.186-.014-3.99 4.722-10.807 6.853-13.29 1.943 2.278 6.908 9.061 6.922 13.246.016 4.514-2.424 7.009-6.864 7.022M12.86.211a.75.75 0 00-1.046 0c-1.593 1.62-7.828 9.786-7.812 14.935.007 2.622.78 4.78 2.232 6.249 1.446 1.459 3.56 2.229 6.118 2.229h.04c5.237-.017 8.357-3.204 8.343-8.528-.02-5.533-6.897-13.89-7.875-14.884" fill="#5CB615" fill-rule="nonzero"/></svg>
